src/assets/icons/domain.svg

<svg fill="none" viewBox="0 0 24 24"><path stroke="currentColor" stroke-linecap="round" stroke-linejoin="round" stroke-width="1.5" d="M12 12.416V19.9m0-7.484 6.891-3.828M12 12.416 5.206 8.641m13.685-.053a.7.7 0 0 0-.097-.13c-.084-.093-.201-.157-.434-.287l-5.755-3.197c-.221-.123-.331-.184-.448-.208a.8.8 0 0 0-.314 0c-.116.024-.227.085-.447.208L5.64 8.171c-.233.13-.349.194-.434.287a.76.76 0 0 0-.166.283C5 8.859 5 8.993 5 9.259v6.314c0 .266 0 .399.04.518a.8.8 0 0 0 .166.283c.085.092.201.157.434.286l5.756 3.198c.22.122.331.184.447.208a.8.8 0 0 0 .314 0c.117-.024.227-.086.448-.208l5.755-3.198c.233-.129.35-.194.434-.286a.8.8 0 0 0 .167-.283c.039-.119.039-.252.039-.518V9.259c0-.266 0-.4-.039-.518a.8.8 0 0 0-.07-.153"/></svg>

<svg width="24" height="24" viewBox="0 0 24 24" fill="none" xmlns="http://www.w3.org/2000/svg">
  <path d="M12 12.416V19.9M12 12.416L18.891 8.588M12 12.416L5.206 8.641M18.891 8.588C18.864 8.541 18.831 8.497 18.794 8.458C18.71 8.365 18.593 8.301 18.36 8.171L12.605 4.974C12.384 4.851 12.274 4.79 12.157 4.766C12.053 4.745 11.947 4.745 11.843 4.766C11.727 4.79 11.616 4.851 11.396 4.974L5.64 8.171C5.407 8.301 5.291 8.365 5.206 8.458C5.131 8.539 5.074 8.635 5.04 8.741C5 8.859 5 8.993 5 9.259V15.573C5 15.839 5 15.972 5.04 16.091C5.074 16.196 5.131 16.293 5.206 16.374C5.291 16.466 5.407 16.531 5.64 16.66L11.396 19.858C11.616 19.98 11.727 20.042 11.843 20.066C11.947 20.087 12.053 20.087 12.157 20.066C12.274 20.042 12.384 19.98 12.605 19.858L18.36 16.66C18.593 16.531 18.71 16.466 18.794 16.374C18.87 16.293 18.926 16.196 18.961 16.091C19 15.972 19 15.839 19 15.573V9.259C19 8.993 19 8.859 18.961 8.741C18.943 8.687 18.92 8.636 18.891 8.588Z" stroke="#314158" stroke-width="1.5" stroke-linecap="round" stroke-linejoin="round"/>
</svg>
